X:169
T:When Sick Is It Tea You Want
Z: id:dc-jig-145
M:6/8
L:1/8
K:D Major
B|Add dcB|AFB AFA|Add ede|fdB B2A|!
Add dcB|AFB AFA|dcd ede|fdc d2:|!
f|afd dcd|BGG G2g|bge ede|cAA AFG|!
Add dcB|AFB AFA|dcd ede|fdc d2:|!

